!!!SOCIAL_FUNCTION:	initiation songs of the first and second degrees
!!!PDT:	1909
!!!OTL: No_9_Song_of_the_Za'gimag'.krn
!!!REG: Great_Lakes
!!!LANG: Non-Tone
!!!LING_GROUP: Algonquin
**kern	**kern
*staff2	*staff1
=1-	=1-
*clefF4	*clefF4
*k[f#]	*k[f#]
*M2/4	*M2/4
8GG/L	2d\
8GG/J	.
8GG/L	.
8GG/J	.
=2||	=2||
*M3/4	*M3/4
8GG/L	4d\
8GG/J	.
8GG/L	4B\
8GG/J	.
8GG/L	4A\
8GG/J	.
=3	=3
2.r	4.A\
.	8A\
.	8.A\L
.	16B\Jk
=4	=4
2.r	4.B\
.	8B\
.	(8.B\L
.	16d\Jk)
=5	=5
2.r	4d\
.	4d\
.	4B\
=6	=6
2.r	4.A\
.	8A\
.	12A\L
.	12A\
.	12A\J
=7	=7
2.r	4.A\
.	8A\
.	8.A\L
.	16A\Jk
=8	=8
2.r	4.G\
.	8G\
.	4G\
=9||	=9||
*M4/4	*M4/4
1r	4A\
.	4A\
.	4A\
.	4A\
=10||	=10||
*M3/4	*M3/4
2.r	4.G\
.	8G\
.	8.G\L
.	16G\Jk
=11!|:	=11!|:
2.r	4.G\
.	8G\
.	4G\
=12||	=12||
*M4/4	*M4/4
1r	4G\
.	4E\
.	4E\
.	4E\
=13||	=13||
*M3/4	*M3/4
2.r	4.D\
.	8D\
.	8.D\L
.	16D\Jk
=14	=14
2.r	4.E\
.	8E\
.	4E\
=15	=15
2.r	4E\
.	4E\
.	4E\
=16	=16
2.r	4.D\
.	8D\
.	8.D\L
.	16D\Jk
=17	=17
2.r	4.D\
.	8D\
.	4D\
=18||	=18||
*M4/4	*M4/4
1r	4BB/
.	4BB/
.	4BB/
.	4GG/
=19||	=19||
*M3/4	*M3/4
2.r	4.GG/
.	8GG/
.	4GG/
=20	=20
*M2/4	*M2/4
2r	4d\
.	4d\
=21||	=21||
*M3/4	*M3/4
2.r	4B\
.	4B\
.	4B\
=22	=22
2.r	4.A\
.	8A\
.	4A\
=23||	=23||
*M2/4	*M2/4
2r	4B\
.	4B\
=24||	=24||
*M3/4	*M3/4
2.r	4B\
.	4B\
.	4B\
=25	=25
2.r	4.A\
.	8A\
.	12A\L
.	12A\
.	12A\J
=26	=26
2.r	4.G\
.	8G\
.	4G\
=27||	=27||
*M4/4	*M4/4
1r	4A\
.	4A\
.	4A\
.	4A\
=28||	=28||
*M3/4	*M3/4
2.r	4.G\
.	8G\
.	8.G\L
.	16G\Jk
==:|!	==:|!
*-	*-
